X:150
T:Matt Teehan's #2
R:polka
S:Maria Ryan & Lucia MacPartlin
Z:id:hn-polka-150
M:2/4
L:1/8
K:G
Bd Bd | B2 BG | Bd Bd | c2 cB |
A>G AB | cB cd | fd cA |1 d2 c2 :|2 G2 de/f/ ||
|: gd BG | FG AB | cA fe | d2 de/f/ |
gd BG | FG AB | cA FA |1 G2 de/f/ :|2 G2 GA ||

